assets/images/icons/ico-3.svg

<svg width="54" height="49" viewBox="0 0 54 49" fill="none" xmlns="http://www.w3.org/2000/svg">
<path d="M23.452 2.37787C23.892 2.30954 24.5058 2.3467 24.7025 2.82747C24.9494 3.50606 24.7264 4.2326 24.5574 4.9028C24.1186 6.24919 23.4484 7.50686 22.723 8.71897C20.8443 11.7798 18.5064 14.5325 16.0091 17.103C13.5825 19.5464 10.9688 21.8328 8.04705 23.6695C7.29892 24.1275 6.53161 24.5567 5.73433 24.9212C4.82794 25.2905 3.87001 25.7113 2.86771 25.5566C2.34618 25.4271 2.18672 24.8229 2.22389 24.3505C2.28983 23.6144 2.5392 22.9106 2.78978 22.2212C4.08701 19.1748 6.07722 16.4856 8.19332 13.9618C10.4916 11.2703 13.0178 8.76573 15.7885 6.55971C17.7187 5.06106 19.7473 3.62835 22.0361 2.73275C22.4881 2.54572 22.9688 2.44022 23.452 2.37787Z" fill="white"/>
<path d="M24.5187 6.06836C24.9387 6.59572 25.6839 6.98165 25.6677 7.74912C25.6688 8.28635 25.546 8.8181 25.3856 9.32792C24.6092 11.513 23.3385 13.4712 21.9902 15.3296C20.1413 17.8348 18.0274 20.1285 15.7703 22.2544C13.8395 24.0206 11.7914 25.6828 9.51058 26.959C8.42296 27.5181 7.2675 28.1321 6.01188 28.063C5.44438 27.8163 5.11379 27.244 4.66797 26.8351C6.31879 26.459 7.81669 25.6192 9.23491 24.7081C11.9766 22.8903 14.4393 20.669 16.7083 18.2767C18.9998 15.8492 21.1094 13.2201 22.7979 10.3191C23.542 8.98475 24.2215 7.58357 24.5187 6.06836Z" fill="#48FDBC"/>
<path d="M22.4973 26.0626C24.5019 27.4066 26.8902 28.0048 29.2353 28.4401C33.9782 29.2421 38.8662 29.1918 43.5875 28.2578C45.5873 27.795 47.6507 27.2651 49.3376 26.041C49.4287 26.5661 49.3328 27.1368 48.9251 27.5121C47.9636 28.446 46.6652 28.91 45.4183 29.3309C43.1967 30.0298 40.8744 30.3188 38.5605 30.5022C35.9144 30.6569 33.2516 30.5945 30.6248 30.2217C29.3755 30.0994 28.155 29.7912 26.9393 29.4879C25.5258 29.0371 24.0343 28.5671 22.9337 27.5229C22.5105 27.1596 22.4518 26.5841 22.4973 26.0626Z" fill="white"/>
<path d="M20.1941 29.4892C20.4854 28.97 20.9961 28.5732 21.5404 28.349C22.4864 29.398 23.7764 30.0383 25.0773 30.5322C27.8288 31.5046 30.7422 31.9158 33.646 32.086C35.4911 32.2119 37.3434 32.1712 39.1862 32.0165C41.2195 31.8738 43.2409 31.5525 45.2107 31.0286C47.0379 30.4783 48.9933 29.8321 50.2798 28.3418C50.8493 28.5516 51.354 28.9796 51.6645 29.5C51.8875 29.91 51.5518 30.3344 51.2677 30.609C50.305 31.4362 49.0725 31.8295 47.8927 32.2371C45.2179 33.0296 42.4364 33.4264 39.6585 33.617C37.1744 33.7537 34.6842 33.7537 32.1989 33.6182C29.3922 33.4216 26.5807 33.0224 23.8783 32.2119C22.7274 31.8079 21.5237 31.4182 20.5837 30.6114C20.2936 30.3368 19.9555 29.8956 20.1941 29.4892Z" fill="white"/>
<path d="M20.1147 32.2324C22.1085 33.5644 24.4968 34.086 26.8107 34.5679C28.3753 34.7969 29.9399 35.0691 31.5224 35.147C33.5055 35.3029 35.4993 35.3412 37.4895 35.3065C38.4414 35.2057 39.4042 35.2681 40.3549 35.1482C41.9722 35.0631 43.5716 34.7897 45.171 34.5451C47.4429 34.0752 49.776 33.5321 51.7398 32.2384C51.6727 32.9913 51.9904 33.9229 51.3382 34.4972C50.4007 35.352 49.1622 35.7501 47.9872 36.1613C44.1267 37.3278 40.0708 37.6527 36.0544 37.6803C35.5892 37.6408 35.094 38.0196 35.1336 38.5112C35.1312 40.3515 35.1264 42.1931 35.136 44.0334C35.1228 44.447 35.5113 44.8259 35.9249 44.8043C38.2951 44.8055 40.6678 44.6868 43.0153 44.3499C45.2249 44.085 47.4225 43.6354 49.5123 42.8621C50.2916 42.5599 51.0433 42.1943 51.741 41.7327C51.6667 42.458 51.9844 43.35 51.391 43.9243C50.7723 44.5597 49.9319 44.8966 49.1346 45.2455C46.0642 46.3905 42.7827 46.8305 39.5324 47.0715C37.6933 47.123 35.8529 47.2441 34.0138 47.1254C31.6855 47.093 29.3668 46.8389 27.0756 46.4241C26.3491 46.3114 25.6357 46.1231 24.9284 45.9265C24.7965 45.9025 24.6658 45.8785 24.5339 45.8558C23.2379 45.4373 21.8915 45.0393 20.7837 44.2168C20.4324 43.9435 20.0751 43.561 20.1075 43.0827C20.1123 39.4667 20.0991 35.8496 20.1147 32.2324Z" fill="white"/>
<path d="M48.2453 38.1564C49.085 37.8647 49.9169 37.5351 50.6607 37.0684C50.6685 37.9025 50.664 38.7378 50.6651 39.573C50.702 39.9752 50.3748 40.2956 50.0588 40.53C49.1286 41.1728 48.0052 41.5095 46.9108 41.8401C43.5865 42.7163 40.1169 43.0069 36.6708 43.0684C36.6653 41.9435 36.6697 40.8186 36.6686 39.6937C36.9846 39.6927 37.3029 39.6927 37.62 39.6804C38.9176 39.6047 40.2219 39.5852 41.515 39.4379C43.7931 39.1932 46.0711 38.8452 48.2453 38.1564Z" fill="#48FDBC"/>
<path d="M23.198 0.791619C24.0444 0.687313 24.9736 0.804807 25.6138 1.42105C26.5909 2.40177 27.5549 3.39687 28.5056 4.40397C29.1135 5.04659 29.1842 5.98894 29.1159 6.82699C28.749 9.22963 27.4841 11.3697 26.1941 13.3875C23.9869 16.6965 21.3444 19.6998 18.4742 22.4477C16.5308 24.2797 14.4722 26.0013 12.2386 27.4724C11.1213 28.2038 9.9523 28.8644 8.71981 29.3835C7.83021 29.7072 6.91783 30.0585 5.9539 30.0201C5.20577 30.0597 4.49481 29.6856 3.98767 29.1569C3.22036 28.3656 2.46024 27.5671 1.68814 26.7806C1.36683 26.4497 1.01435 26.114 0.878868 25.6572C0.496412 24.6346 0.748186 23.528 1.01794 22.5125C1.47593 21.1049 2.15452 19.7801 2.91464 18.5141C4.8401 15.3753 7.20917 12.5279 9.77007 9.88903C12.4401 7.17587 15.3379 4.65095 18.5989 2.66793C20.034 1.84068 21.5471 1.06377 23.198 0.791619ZM23.451 2.37779C22.9678 2.44014 22.487 2.54564 22.035 2.73267C19.7463 3.62827 17.7177 5.06098 15.7875 6.55963C13.0167 8.76564 10.4906 11.2702 8.19229 13.9618C6.07619 16.4855 4.08598 19.1747 2.78875 22.2211C2.53817 22.9105 2.2888 23.6143 2.22286 24.3504C2.18569 24.8228 2.34515 25.427 2.86668 25.5565C3.86898 25.7112 4.82692 25.2904 5.7333 24.9211C6.53058 24.5566 7.29789 24.1274 8.04602 23.6694C10.9678 21.8327 13.5814 19.5463 16.0081 17.1029C18.5054 14.5325 20.8433 11.7797 22.722 8.71889C23.4474 7.50678 24.1176 6.24911 24.5564 4.90272C24.7254 4.23252 24.9484 3.50598 24.7014 2.82739C24.5048 2.34662 23.891 2.30945 23.451 2.37779ZM26.2912 4.37879C25.9603 6.0357 25.2038 7.56792 24.3753 9.02701C22.4954 12.1994 20.1467 15.0744 17.5954 17.7288C15.0693 20.3448 12.3274 22.7738 9.27491 24.7616C7.69593 25.758 6.02823 26.6763 4.19029 27.0876C4.68664 27.5348 5.05471 28.1606 5.68654 28.4303C7.08448 28.5059 8.37093 27.8345 9.58184 27.223C12.1212 25.8275 14.4015 24.0099 16.5512 22.0785C19.0641 19.7538 21.4176 17.2456 23.4761 14.5061C24.9772 12.4739 26.3919 10.3326 27.2563 7.94318C27.435 7.38568 27.5716 6.80421 27.5704 6.21674C27.5884 5.37749 26.7588 4.95547 26.2912 4.37879Z" fill="black"/>
<path d="M39.9269 16.1456C39.9952 15.6805 40.5659 15.4179 40.976 15.6193C43.6699 17.269 45.4084 20.3706 45.3928 23.5322C45.3844 24.0921 44.6674 24.4482 44.2107 24.1305C43.8558 23.9458 43.8294 23.5154 43.8222 23.1629C43.7131 21.06 42.724 19.0111 41.0935 17.6671C40.0516 19.4954 38.2149 20.7699 36.2474 21.4329C35.2391 21.8021 34.1517 21.8693 33.0871 21.8873C31.1832 21.9952 29.3129 22.7157 27.8598 23.9578C27.6056 24.2012 27.2171 24.3379 26.8886 24.158C26.3863 23.9482 26.3168 23.1761 26.7316 22.85C28.5815 21.1931 31.0585 20.2915 33.5367 20.2963C35.7403 20.2927 37.8875 19.2197 39.2831 17.528C39.6116 17.1312 39.855 16.66 39.9269 16.1456Z" fill="black"/>
<path d="M29.211 18.4801C31.435 18.1468 33.6806 17.9034 35.9334 17.9274C36.347 17.9226 36.7463 18.3123 36.7139 18.7319C36.7307 19.1479 36.3446 19.5148 35.9346 19.5064C32.8618 19.504 29.7709 19.8181 26.8024 20.6334C25.5735 21.0362 24.3086 21.4546 23.2752 22.2591C22.8831 22.572 22.4599 22.9929 22.5007 23.5372C22.5582 24.1174 23.0558 24.4939 23.4814 24.826C24.353 25.4195 25.3445 25.8055 26.3372 26.14C29.711 27.1759 33.267 27.4588 36.7798 27.4061C39.8167 27.3389 42.8751 26.9877 45.7789 26.0585C46.9035 25.6305 48.0892 25.2001 48.9501 24.3225C49.305 23.9748 49.504 23.3969 49.203 22.9521C48.6851 22.1404 47.7655 21.7196 46.9299 21.312C46.4839 21.077 45.8916 21.0554 45.5715 20.6286C45.2514 20.2162 45.5092 19.5747 45.9875 19.4237C46.4359 19.3361 46.852 19.5855 47.2572 19.7366C48.5328 20.2785 49.8708 20.9631 50.601 22.1968C51.041 22.9221 50.9223 23.8021 50.9367 24.6102C50.9547 25.3679 50.8995 26.1292 50.9679 26.8846C52.0877 27.4444 53.2746 28.4012 53.3117 29.7596C53.3177 34.2411 53.3165 38.7215 53.313 43.2019C53.3165 44.1023 52.7566 44.8851 52.0721 45.4199C50.7221 46.4941 49.0424 47.0144 47.4107 47.488C46.4215 47.705 45.4408 47.97 44.4361 48.1055C42.5299 48.3752 40.6164 48.6606 38.6861 48.6761C37.2066 48.8044 35.7176 48.7445 34.2345 48.7445C33.3593 48.6486 32.4757 48.6869 31.5993 48.6042C29.4232 48.4148 27.2496 48.145 25.1203 47.6535L25.046 47.6079C23.732 47.3549 22.4611 46.8933 21.2442 46.343C20.3438 45.8719 19.4242 45.3168 18.8763 44.4308C18.597 43.9908 18.5334 43.4584 18.5394 42.9489C18.5454 38.5536 18.5346 34.1572 18.5442 29.762C18.549 28.3676 19.8031 27.4684 20.8929 26.8426C20.9337 25.6569 20.8845 24.4675 20.9145 23.2806C20.9864 22.1608 21.8461 21.3 22.7297 20.7101C24.6731 19.45 26.9691 18.9297 29.211 18.4801ZM22.4959 26.0621C22.4503 26.5836 22.5091 27.1591 22.9323 27.5224C24.0329 28.5666 25.5244 29.0366 26.9379 29.4874C28.1536 29.7907 29.3741 30.0989 30.6234 30.2211C33.2502 30.594 35.913 30.6564 38.559 30.5017C40.8729 30.3183 43.1953 30.0293 45.4169 29.3303C46.6637 28.9095 47.9622 28.4455 48.9237 27.5116C49.3313 27.1363 49.4272 26.5656 49.3361 26.0405C47.6492 27.2646 45.5859 27.7945 43.5861 28.2573C38.8647 29.1913 33.9767 29.2416 29.2338 28.4396C26.8887 28.0043 24.5005 27.4061 22.4959 26.0621ZM20.194 29.4898C19.9554 29.8962 20.2935 30.3374 20.5836 30.612C21.5236 31.4189 22.7273 31.8085 23.8782 32.2126C26.5806 33.023 29.3921 33.4223 32.1987 33.6189C34.6841 33.7544 37.1743 33.7544 39.6584 33.6177C42.4363 33.4271 45.2178 33.0302 47.8926 32.2377C49.0724 31.8301 50.3049 31.4369 51.2676 30.6096C51.5517 30.335 51.8874 29.9106 51.6644 29.5006C51.3539 28.9803 50.8492 28.5522 50.2797 28.3424C48.9932 29.8327 47.0378 30.4789 45.2106 31.0292C43.2408 31.5531 41.2194 31.8745 39.1861 32.0171C37.3433 32.1718 35.491 32.2126 33.6458 32.0867C30.7421 31.9164 27.8287 31.5052 25.0772 30.5329C23.7763 30.0389 22.4863 29.3987 21.5403 28.3496C20.996 28.5738 20.4853 28.9707 20.194 29.4898ZM20.1124 32.2317C20.0968 35.8489 20.11 39.466 20.1052 43.082C20.0729 43.5603 20.4301 43.9428 20.7814 44.2162C21.8892 45.0386 23.2356 45.4367 24.5316 45.8551C24.6635 45.8779 24.7942 45.9018 24.9261 45.9258C25.6335 46.1224 26.3468 46.3107 27.0734 46.4234C29.3645 46.8382 31.6832 47.0924 34.0115 47.1247C35.8507 47.2434 37.691 47.1223 39.5301 47.0708C42.7804 46.8298 46.0619 46.3898 49.1323 45.2448C49.9296 44.8959 50.77 44.559 51.3887 43.9236C51.9821 43.3493 51.6644 42.4573 51.7388 41.732C51.041 42.1936 50.2893 42.5592 49.51 42.8614C47.4203 43.6347 45.2226 44.0843 43.013 44.3492C40.6655 44.6861 38.2929 44.8048 35.9226 44.8036C35.509 44.8252 35.1205 44.4463 35.1337 44.0327C35.1241 42.1924 35.1289 40.3508 35.1313 38.5105C35.0917 38.0189 35.5869 37.6401 36.0521 37.6796C40.0685 37.6521 44.1244 37.3272 47.9849 36.1606C49.1599 35.7494 50.3984 35.3513 51.3359 34.4965C51.9881 33.9222 51.6704 32.9907 51.7376 32.2377C49.7737 33.5314 47.4406 34.0745 45.1687 34.5445C43.5693 34.789 41.97 35.0624 40.3526 35.1475C39.4019 35.2674 38.4391 35.2051 37.4872 35.3058C35.497 35.3405 33.5032 35.3022 31.5202 35.1463C29.9376 35.0684 28.373 34.7962 26.8084 34.5672C24.4945 34.0853 22.1062 33.5637 20.1124 32.2317ZM49.1443 37.465C46.81 38.2719 44.3642 38.6795 41.9184 38.9661C40.5301 39.1387 39.1297 39.1615 37.7366 39.2502C37.3961 39.2646 37.0544 39.2646 36.7151 39.2658C36.7163 40.5834 36.7115 41.901 36.7175 43.2187C40.4174 43.1467 44.1424 42.8062 47.7116 41.7799C48.8865 41.3927 50.0926 40.9983 51.0913 40.2453C51.4306 39.9708 51.7819 39.5955 51.7424 39.1243C51.7412 38.146 51.746 37.1677 51.7376 36.1906C50.9391 36.7373 50.0459 37.1233 49.1443 37.465Z" fill="black"/>
</svg>

<svg xmlns="http://www.w3.org/2000/svg" width="54" height="49" fill="none"><path fill="#fff" d="M23.452 2.378c.44-.068 1.054-.031 1.25.45.247.678.024 1.405-.145 2.075-.438 1.346-1.109 2.604-1.834 3.816-1.879 3.06-4.217 5.814-6.714 8.384-2.427 2.443-5.04 4.73-7.962 6.566-.748.459-1.515.888-2.313 1.252-.906.37-1.864.79-2.866.636-.522-.13-.681-.734-.644-1.206.066-.737.315-1.44.566-2.13 1.297-3.046 3.287-5.735 5.403-8.26 2.299-2.69 4.825-5.195 7.596-7.401 1.93-1.499 3.958-2.932 6.247-3.827a5.6 5.6 0 0 1 1.416-.355"/><path fill="#48FDBC" d="M24.519 6.068c.42.528 1.165.914 1.149 1.681 0 .537-.122 1.07-.282 1.579-.777 2.185-2.047 4.143-3.396 6.002-1.849 2.505-3.963 4.798-6.22 6.924-1.93 1.767-3.979 3.429-6.26 4.705-1.087.56-2.242 1.173-3.498 1.104-.568-.247-.898-.819-1.344-1.228 1.65-.376 3.149-1.216 4.567-2.127 2.742-1.818 5.204-4.039 7.473-6.431 2.292-2.428 4.401-5.057 6.09-7.958.744-1.334 1.424-2.735 1.72-4.25"/><path fill="#fff" d="M22.497 26.063c2.005 1.344 4.393 1.942 6.738 2.377a39.9 39.9 0 0 0 14.353-.182c2-.463 4.063-.993 5.75-2.217.09.525-.005 1.096-.413 1.471-.961.934-2.26 1.398-3.507 1.819-2.221.699-4.544.988-6.858 1.171-2.646.155-5.308.093-7.935-.28-1.25-.123-2.47-.43-3.686-.734-1.413-.45-2.905-.92-4.005-1.965-.424-.363-.482-.939-.437-1.46"/><path fill="#fff" d="M20.194 29.49c.291-.52.802-.917 1.346-1.141.946 1.049 2.236 1.69 3.537 2.183 2.752.973 5.665 1.384 8.569 1.554a36.5 36.5 0 0 0 5.54-.07 32.2 32.2 0 0 0 6.025-.987c1.827-.55 3.782-1.197 5.069-2.687.57.21 1.074.638 1.384 1.158.224.41-.112.834-.396 1.109-.963.827-2.196 1.22-3.375 1.628-2.675.793-5.457 1.19-8.235 1.38a68 68 0 0 1-7.46.001c-2.806-.196-5.617-.596-8.32-1.406-1.15-.404-2.354-.794-3.294-1.6-.29-.275-.628-.716-.39-1.123"/><path fill="#fff" d="M20.115 32.232c1.994 1.332 4.382 1.854 6.696 2.336 1.564.229 3.129.501 4.711.579 1.983.156 3.977.194 5.968.16.951-.101 1.914-.039 2.865-.159 1.617-.085 3.217-.358 4.816-.603 2.272-.47 4.605-1.013 6.569-2.307-.067.753.25 1.685-.402 2.26-.937.854-2.176 1.252-3.35 1.663-3.861 1.167-7.917 1.492-11.934 1.52-.465-.04-.96.339-.92.83-.003 1.84-.008 3.682.002 5.522-.013.414.375.793.789.771 2.37.002 4.743-.117 7.09-.454 2.21-.265 4.407-.715 6.497-1.488.78-.302 1.531-.668 2.229-1.13-.074.726.243 1.618-.35 2.192-.619.636-1.46.973-2.256 1.322-3.07 1.145-6.352 1.584-9.603 1.825-1.839.052-3.68.173-5.518.054-2.329-.032-4.647-.286-6.938-.7-.727-.114-1.44-.302-2.148-.498l-.394-.071c-1.296-.419-2.642-.817-3.75-1.64-.352-.273-.709-.655-.676-1.133.004-3.616-.009-7.233.007-10.85"/><path fill="#48FDBC" d="M48.245 38.156c.84-.291 1.672-.62 2.416-1.088.008.835.003 1.67.004 2.505.037.402-.29.723-.606.957-.93.643-2.054.98-3.148 1.31-3.325.876-6.794 1.167-10.24 1.228-.006-1.124-.001-2.25-.002-3.374.316-.001.634-.001.951-.014 1.298-.075 2.602-.095 3.895-.242 2.278-.245 4.556-.593 6.73-1.282"/><path fill="#000" d="M23.198.792c.846-.105 1.776.013 2.416.629q1.465 1.471 2.892 2.983c.607.643.678 1.585.61 2.423-.367 2.403-1.632 4.543-2.922 6.56-2.207 3.31-4.85 6.313-7.72 9.06-1.943 1.833-4.002 3.554-6.235 5.025-1.118.732-2.287 1.392-3.52 1.912-.889.323-1.801.674-2.765.636-.748.04-1.46-.334-1.966-.863-.768-.791-1.528-1.59-2.3-2.376-.321-.331-.674-.667-.81-1.124-.382-1.022-.13-2.129.14-3.145.458-1.407 1.137-2.732 1.897-3.998C4.84 15.375 7.209 12.528 9.77 9.89c2.67-2.713 5.568-5.238 8.829-7.221 1.435-.827 2.948-1.604 4.599-1.876m.253 1.586a5.6 5.6 0 0 0-1.416.355c-2.289.895-4.317 2.328-6.248 3.827-2.77 2.206-5.296 4.71-7.595 7.402-2.116 2.523-4.106 5.213-5.403 8.26-.25.688-.5 1.392-.566 2.128-.037.473.122 1.077.644 1.206 1.002.155 1.96-.266 2.866-.635a22 22 0 0 0 2.313-1.252c2.922-1.836 5.535-4.123 7.962-6.566 2.497-2.57 4.835-5.323 6.714-8.384.725-1.212 1.396-2.47 1.834-3.816.17-.67.392-1.397.145-2.076-.196-.48-.81-.518-1.25-.45m2.84 2c-.33 1.658-1.087 3.19-1.916 4.649-1.88 3.172-4.228 6.047-6.78 8.702-2.526 2.616-5.268 5.045-8.32 7.033-1.58.996-3.247 1.914-5.085 2.326.497.447.865 1.073 1.497 1.342 1.397.076 2.684-.596 3.895-1.207 2.54-1.395 4.82-3.213 6.97-5.145 2.512-2.324 4.866-4.832 6.924-7.572 1.501-2.032 2.916-4.173 3.78-6.563.179-.557.316-1.139.314-1.726.018-.84-.811-1.262-1.279-1.838M39.927 16.146c.068-.466.639-.728 1.049-.527 2.694 1.65 4.432 4.752 4.417 7.913-.009.56-.726.916-1.182.599-.355-.185-.382-.616-.389-.968-.109-2.103-1.098-4.152-2.729-5.496-1.041 1.828-2.878 3.103-4.846 3.766-1.008.37-2.095.436-3.16.454-1.904.108-3.774.829-5.227 2.07-.254.244-.643.38-.971.201-.503-.21-.572-.982-.157-1.308 1.85-1.657 4.326-2.559 6.805-2.554 2.203-.003 4.35-1.076 5.746-2.768.329-.397.572-.868.644-1.382"/><path fill="#000" d="M29.211 18.48c2.224-.333 4.47-.577 6.722-.553.414-.004.813.385.78.805.018.416-.368.783-.778.774-3.073-.002-6.164.312-9.133 1.127-1.229.403-2.493.822-3.527 1.626-.392.313-.815.734-.774 1.278.057.58.555.957.98 1.289.872.593 1.863.98 2.856 1.314 3.374 1.036 6.93 1.319 10.443 1.266 3.037-.067 6.095-.418 8.999-1.348 1.124-.427 2.31-.858 3.171-1.735.355-.348.554-.926.253-1.37-.518-.813-1.437-1.233-2.273-1.641-.446-.235-1.038-.257-1.358-.683-.32-.413-.063-1.054.415-1.205.449-.088.865.162 1.27.313 1.276.542 2.614 1.226 3.344 2.46.44.725.321 1.605.336 2.413.018.758-.037 1.52.03 2.275 1.12.56 2.308 1.516 2.345 2.875q.008 6.721.001 13.442c.003.9-.556 1.683-1.24 2.218-1.35 1.074-3.03 1.594-4.662 2.068-.99.217-1.97.482-2.975.617-1.906.27-3.82.556-5.75.571-1.48.128-2.968.069-4.452.069-.875-.096-1.758-.058-2.635-.14-2.176-.19-4.35-.46-6.479-.951l-.074-.046c-1.314-.253-2.585-.715-3.802-1.265-.9-.471-1.82-1.026-2.368-1.912-.279-.44-.343-.973-.337-1.482.006-4.395-.004-8.792.005-13.187.005-1.394 1.26-2.294 2.349-2.92.04-1.185-.009-2.374.021-3.561.072-1.12.932-1.981 1.816-2.57 1.943-1.261 4.24-1.781 6.481-2.23m-6.715 7.582c-.046.522.013 1.097.436 1.46 1.1 1.045 2.592 1.515 4.006 1.965 1.216.304 2.436.612 3.685.734 2.627.373 5.29.435 7.936.28 2.314-.183 4.636-.472 6.858-1.17 1.247-.421 2.545-.886 3.507-1.82.407-.375.503-.945.412-1.47-1.687 1.224-3.75 1.753-5.75 2.216-4.721.934-9.61.985-14.352.183-2.345-.436-4.734-1.034-6.738-2.378m-2.302 3.428c-.239.406.1.847.39 1.122.94.807 2.143 1.197 3.294 1.6 2.703.811 5.514 1.21 8.32 1.407 2.486.135 4.976.135 7.46-.001 2.778-.19 5.56-.588 8.235-1.38 1.18-.408 2.412-.801 3.375-1.628.284-.275.62-.7.396-1.11a2.76 2.76 0 0 0-1.384-1.158c-1.287 1.49-3.242 2.137-5.07 2.687-1.97.524-3.99.846-6.024.988a36.5 36.5 0 0 1-5.54.07c-2.904-.17-5.817-.582-8.569-1.554-1.3-.494-2.59-1.134-3.537-2.183-.544.224-1.055.62-1.346 1.14m-.082 2.742c-.015 3.617-.002 7.234-.007 10.85-.032.478.325.86.676 1.134 1.108.823 2.455 1.22 3.75 1.64q.198.034.395.07c.708.196 1.42.385 2.147.497 2.291.415 4.61.67 6.938.702 1.84.118 3.68-.003 5.52-.054 3.25-.241 6.53-.681 9.601-1.826.798-.35 1.638-.686 2.257-1.321.593-.575.275-1.467.35-2.192-.698.462-1.45.827-2.229 1.13-2.09.773-4.287 1.222-6.497 1.487-2.347.337-4.72.456-7.09.455-.414.021-.803-.358-.79-.771-.009-1.84-.004-3.682-.002-5.523-.04-.491.456-.87.921-.83 4.017-.028 8.072-.353 11.933-1.52 1.175-.41 2.413-.809 3.35-1.663.653-.575.335-1.506.403-2.26-1.964 1.294-4.297 1.837-6.57 2.307-1.599.245-3.198.518-4.815.604-.951.12-1.914.057-2.866.158a62 62 0 0 1-5.967-.16c-1.582-.078-3.147-.35-4.712-.579-2.314-.482-4.702-1.003-6.696-2.335m29.032 5.233c-2.334.807-4.78 1.214-7.226 1.501-1.388.173-2.788.195-4.181.284-.34.015-.683.015-1.022.016.001 1.317-.004 2.635.002 3.953 3.7-.072 7.425-.413 10.995-1.44 1.174-.386 2.38-.78 3.38-1.534.339-.274.69-.65.65-1.12 0-.979.004-1.957-.004-2.934-.799.546-1.692.932-2.594 1.274"/></svg>
